assets/messsy-logo-gPPwCf5h.svg

<svg width="553" height="105" viewBox="0 0 553 105" fill="none" xmlns="http://www.w3.org/2000/svg">
<path d="M15.9827 82.7273L9.5896 81.1364L6.39306 79.5455L3.19653 76.3636L1.59827 73.1818L0 66.8182V63.6364L1.59827 57.2727L3.19653 54.0909L6.39306 50.9091L7.99133 47.7273L9.5896 41.3636L7.99133 35L6.39306 31.8182L3.19653 28.6364L1.59827 25.4545L0 19.0909V15.9091L1.59827 9.54545L3.19653 6.36364L6.39306 3.18182L9.5896 1.59091L15.9827 0H19.1792L25.5723 1.59091L28.7688 3.18182L31.9653 6.36364L35.1618 7.95455L41.5549 9.54545L44.7514 10.142L51.1445 11.1364L54.341 11.733L60.7341 12.7273H70.3237L76.7168 11.733L79.9133 11.1364L86.3064 10.142L89.5029 9.54545L95.896 7.95455L99.0925 6.36364L102.289 3.18182L105.486 1.59091L111.879 0H115.075L121.468 1.59091L124.665 3.18182L127.861 6.36364L129.46 9.54545L131.058 15.9091V19.0909L129.46 25.4545L127.861 28.6364L124.665 31.8182L123.066 35L121.468 41.3636L123.066 47.7273L124.665 50.9091L127.861 54.0909L129.46 57.2727L131.058 63.6364V66.8182L129.46 73.1818L127.861 76.3636L124.665 79.5455L121.468 81.1364L115.075 82.7273H111.879L105.486 81.1364L102.289 79.5455L99.0925 76.3636L97.4942 73.1818L95.896 66.8182V63.6364L97.4942 57.2727L99.0925 54.0909L102.289 50.9091L103.887 47.7273L105.486 41.3636L102.289 35L99.0925 33.4091L92.6994 31.8182H86.3064L79.9133 33.4091L76.7168 35L73.5202 41.3636L75.1185 47.7273L76.7168 50.9091L79.9133 54.0909L81.5116 57.2727L83.1098 63.6364V66.8182L81.5116 73.1818L79.9133 76.3636L76.7168 79.5455L73.5202 81.1364L67.1272 82.7273H63.9306L57.5376 81.1364L54.341 79.5455L51.1445 76.3636L49.5462 73.1818L47.948 66.8182V63.6364L49.5462 57.2727L51.1445 54.0909L54.341 50.9091L55.9393 47.7273L57.5376 41.3636L54.341 35L51.1445 33.4091L44.7514 31.8182H38.3584L31.9653 33.4091L28.7688 35L25.5723 41.3636L27.1705 47.7273L28.7688 50.9091L31.9653 54.0909L33.5636 57.2727L35.1618 63.6364V66.8182L33.5636 73.1818L31.9653 76.3636L28.7688 79.5455L25.5723 81.1364L19.1792 82.7273H15.9827Z" fill="white"/>
<path d="M179.006 35L182.202 33.4091L183.801 31.8182L185.399 28.6364V22.2727L183.801 19.0909L182.202 17.5L179.006 15.9091H172.613L169.416 17.5L167.818 19.0909L166.22 22.2727V28.6364L167.818 31.8182L169.416 33.4091L172.613 35H179.006ZM150.237 82.7273L143.844 81.1364L140.647 79.5455L137.451 76.3636L135.853 73.1818L134.254 66.8182V63.6364L135.853 57.2727L137.451 54.0909L140.647 50.9091L142.246 47.7273L143.844 41.3636L142.246 35L140.647 31.8182L137.451 28.6364L135.853 25.4545L134.254 19.0909V15.9091L135.853 9.54545L137.451 6.36364L140.647 3.18182L143.844 1.59091L150.237 0H153.434L159.827 1.59091L163.023 3.18182L166.22 6.36364L169.416 7.95455L175.809 9.54545L182.202 7.95455L185.399 6.36364L188.595 3.18182L191.792 1.59091L198.185 0H201.382L207.775 1.59091L210.971 3.18182L214.168 6.36364L215.766 9.54545L217.364 15.9091V19.0909L215.766 25.4545L214.168 28.6364L210.971 30.2273L204.578 31.4205L201.382 31.8182H198.185L191.792 33.4091L190.194 35L188.595 38.1818V44.5455L190.194 47.7273L191.792 49.3182L198.185 50.9091H201.382L204.578 51.5057L210.971 52.5L214.168 54.0909L215.766 57.2727L217.364 63.6364V66.8182L215.766 73.1818L214.168 76.3636L210.971 79.5455L207.775 81.1364L201.382 82.7273H198.185L191.792 81.1364L188.595 79.5455L185.399 76.3636L182.202 74.7727L175.809 73.1818L169.416 74.7727L166.22 76.3636L163.023 79.5455L159.827 81.1364L153.434 82.7273H150.237Z" fill="white"/>
<path d="M233.347 82.7273L226.954 81.1364L222.159 76.3636L220.561 70V66.8182L222.159 60.4545L226.954 55.6818L233.347 54.0909H236.543L242.936 55.6818L246.133 57.2727L249.329 60.4545L252.526 62.0455L258.919 63.6364L265.312 62.0455L266.91 60.4545V57.2727L265.312 54.0909L233.347 38.1818L223.757 28.6364L222.159 25.4545L220.561 19.0909V15.9091L222.159 9.54545L223.757 6.36364L226.954 3.18182L230.15 1.59091L236.543 0H239.74L246.133 1.59091L249.329 3.18182L252.526 6.36364L255.723 7.95455L262.116 9.54545L268.509 7.95455L271.705 6.36364L274.902 3.18182L278.098 1.59091L284.491 0H287.688L294.081 1.59091L298.876 6.36364L300.474 12.7273V15.9091L298.876 22.2727L294.081 27.0455L287.688 28.6364H284.491L278.098 27.0455L274.902 25.4545L271.705 22.2727L268.509 20.6818L262.116 19.0909L255.723 20.6818L254.124 22.2727V25.4545L255.723 28.6364L287.688 44.5455L297.277 54.0909L298.876 57.2727L300.474 63.6364V66.8182L298.876 73.1818L297.277 76.3636L294.081 79.5455L290.884 81.1364L284.491 82.7273H281.295L274.902 81.1364L271.705 79.5455L268.509 76.3636L265.312 74.7727L258.919 73.1818L252.526 74.7727L249.329 76.3636L246.133 79.5455L242.936 81.1364L236.543 82.7273H233.347Z" fill="white"/>
<path d="M316.457 82.7273L310.064 81.1364L305.269 76.3636L303.671 70V66.8182L305.269 60.4545L310.064 55.6818L316.457 54.0909H319.653L326.046 55.6818L329.243 57.2727L332.439 60.4545L335.636 62.0455L342.029 63.6364L348.422 62.0455L350.02 60.4545V57.2727L348.422 54.0909L316.457 38.1818L306.867 28.6364L305.269 25.4545L303.671 19.0909V15.9091L305.269 9.54545L306.867 6.36364L310.064 3.18182L313.26 1.59091L319.653 0H322.85L329.243 1.59091L332.439 3.18182L335.636 6.36364L338.832 7.95455L345.225 9.54545L351.618 7.95455L354.815 6.36364L358.012 3.18182L361.208 1.59091L367.601 0H370.798L377.191 1.59091L381.986 6.36364L383.584 12.7273V15.9091L381.986 22.2727L377.191 27.0455L370.798 28.6364H367.601L361.208 27.0455L358.012 25.4545L354.815 22.2727L351.618 20.6818L345.225 19.0909L338.832 20.6818L337.234 22.2727V25.4545L338.832 28.6364L370.798 44.5455L380.387 54.0909L381.986 57.2727L383.584 63.6364V66.8182L381.986 73.1818L380.387 76.3636L377.191 79.5455L373.994 81.1364L367.601 82.7273H364.405L358.012 81.1364L354.815 79.5455L351.618 76.3636L348.422 74.7727L342.029 73.1818L335.636 74.7727L332.439 76.3636L329.243 79.5455L326.046 81.1364L319.653 82.7273H316.457Z" fill="white"/>
<path d="M399.566 82.7273L393.173 81.1364L388.379 76.3636L386.78 70V66.8182L388.379 60.4545L393.173 55.6818L399.566 54.0909H402.763L409.156 55.6818L412.353 57.2727L415.549 60.4545L418.746 62.0455L425.139 63.6364L431.532 62.0455L433.13 60.4545V57.2727L431.532 54.0909L399.566 38.1818L389.977 28.6364L388.379 25.4545L386.78 19.0909V15.9091L388.379 9.54545L389.977 6.36364L393.173 3.18182L396.37 1.59091L402.763 0H405.96L412.353 1.59091L415.549 3.18182L418.746 6.36364L421.942 7.95455L428.335 9.54545L434.728 7.95455L437.925 6.36364L441.121 3.18182L444.318 1.59091L450.711 0H453.908L460.301 1.59091L465.095 6.36364L466.694 12.7273V15.9091L465.095 22.2727L460.301 27.0455L453.908 28.6364H450.711L444.318 27.0455L441.121 25.4545L437.925 22.2727L434.728 20.6818L428.335 19.0909L421.942 20.6818L420.344 22.2727V25.4545L421.942 28.6364L453.908 44.5455L463.497 54.0909L465.095 57.2727L466.694 63.6364V66.8182L465.095 73.1818L463.497 76.3636L460.301 79.5455L457.104 81.1364L450.711 82.7273H447.514L441.121 81.1364L437.925 79.5455L434.728 76.3636L431.532 74.7727L425.139 73.1818L418.746 74.7727L415.549 76.3636L412.353 79.5455L409.156 81.1364L402.763 82.7273H399.566Z" fill="white"/>
<path d="M485.873 105L479.48 103.409L474.685 98.6364L473.087 92.2727V89.0909L474.685 82.7273L479.48 77.9545L485.873 76.3636H489.069L495.462 77.9545L498.659 79.5455L501.855 82.7273L503.454 85.9091L505.052 87.5L508.249 89.0909H514.642L517.838 87.5L519.436 85.9091L521.035 82.7273V76.3636L519.436 73.1818L517.838 71.5909L514.642 70H508.249L505.052 71.5909L501.855 74.7727L495.462 76.3636L489.069 74.7727L485.873 73.1818L482.676 70L481.078 66.8182L479.48 60.4545V44.5455L477.882 38.1818L476.283 35L473.087 31.8182L471.488 28.6364L469.89 22.2727V19.0909L471.488 12.7273L473.087 9.54545L476.283 6.36364L479.48 4.77273L485.873 3.18182H489.069L495.462 4.77273L498.659 6.36364L501.855 9.54545L503.454 12.7273L505.052 19.0909V22.2727L503.454 28.6364L501.855 31.8182L498.659 35L497.061 38.1818L495.462 44.5455L498.659 50.9091L501.855 52.5L508.249 54.0909H514.642L521.035 52.5L524.231 50.9091L527.428 44.5455L525.829 38.1818L524.231 35L521.035 31.8182L519.436 28.6364L517.838 22.2727V19.0909L519.436 12.7273L521.035 9.54545L524.231 6.36364L527.428 4.77273L533.821 3.18182H537.017L543.41 4.77273L546.607 6.36364L549.803 9.54545L551.402 12.7273L553 19.0909V22.2727L551.402 28.6364L549.803 31.8182L546.607 35L545.009 38.1818L543.41 44.5455V63.6364L545.009 70L546.607 73.1818L549.803 76.3636L551.402 79.5455L553 85.9091V89.0909L551.402 95.4545L549.803 98.6364L546.607 101.818L543.41 103.409L537.017 105H533.821L527.428 103.409L524.231 101.818L521.035 98.6364L517.838 97.0455L511.445 95.4545L505.052 97.0455L501.855 98.6364L498.659 101.818L495.462 103.409L489.069 105H485.873Z" fill="white"/>
</svg>

<svg xmlns="http://www.w3.org/2000/svg" width="553" height="105" fill="none" viewBox="0 0 553 105"><path fill="#fff" d="m15.983 82.727-6.393-1.59-3.197-1.591-3.196-3.182-1.599-3.182L0 66.818v-3.182l1.598-6.363 1.599-3.182 3.196-3.182 1.598-3.182 1.599-6.363L7.99 35l-1.598-3.182-3.196-3.182-1.599-3.181L0 19.09v-3.182l1.598-6.364 1.599-3.181 3.196-3.182L9.59 1.59 15.983 0h3.196l6.393 1.59 3.197 1.592 3.196 3.182 3.197 1.59 6.393 1.591 3.196.597 6.394.994 3.196.597 6.393.994h9.59l6.393-.994 3.196-.597 6.393-.994 3.197-.597 6.393-1.59 3.197-1.591 3.196-3.182 3.197-1.591L111.879 0h3.196l6.393 1.59 3.197 1.592 3.196 3.182 1.599 3.181 1.598 6.364v3.182l-1.598 6.363-1.599 3.182-3.196 3.182L123.066 35l-1.598 6.364 1.598 6.363 1.599 3.182 3.196 3.182 1.599 3.182 1.598 6.363v3.182l-1.598 6.364-1.599 3.182-3.196 3.182-3.197 1.59-6.393 1.591h-3.196l-6.393-1.59-3.197-1.591-3.197-3.182-1.598-3.182-1.598-6.364v-3.182l1.598-6.363 1.599-3.182 3.196-3.182 1.598-3.182 1.599-6.363L102.289 35l-3.197-1.59-6.393-1.592h-6.393l-6.393 1.591L76.717 35l-3.197 6.364 1.599 6.363 1.598 3.182 3.196 3.182 1.599 3.182 1.598 6.363v3.182l-1.598 6.364-1.599 3.182-3.196 3.182-3.197 1.59-6.393 1.591h-3.196l-6.393-1.59-3.197-1.591-3.197-3.182-1.598-3.182-1.598-6.364v-3.182l1.598-6.363 1.599-3.182 3.196-3.182 1.598-3.182 1.599-6.363L54.34 35l-3.197-1.59-6.393-1.592h-6.393l-6.393 1.591L28.77 35l-3.197 6.364 1.599 6.363 1.598 3.182 3.196 3.182 1.599 3.182 1.598 6.363v3.182l-1.598 6.364-1.599 3.182-3.196 3.182-3.197 1.59-6.393 1.591zM179.006 35l3.196-1.59 1.599-1.592 1.598-3.182v-6.363l-1.598-3.182-1.599-1.591-3.196-1.59h-6.393l-3.197 1.59-1.598 1.59-1.598 3.183v6.363l1.598 3.182 1.598 1.591L172.613 35zm-28.769 47.727-6.393-1.59-3.197-1.591-3.196-3.182-1.598-3.182-1.599-6.364v-3.182l1.599-6.363 1.598-3.182 3.196-3.182 1.599-3.182 1.598-6.363L142.246 35l-1.599-3.182-3.196-3.182-1.598-3.181-1.599-6.364v-3.182l1.599-6.364 1.598-3.181 3.196-3.182 3.197-1.591L150.237 0h3.197l6.393 1.59 3.196 1.592 3.197 3.182 3.196 1.59 6.393 1.591 6.393-1.59 3.197-1.591 3.196-3.182 3.197-1.591L198.185 0h3.197l6.393 1.59 3.196 1.592 3.197 3.182 1.598 3.181 1.598 6.364v3.182l-1.598 6.363-1.598 3.182-3.197 1.591-6.393 1.194-3.196.397h-3.197l-6.393 1.591L190.194 35l-1.599 3.182v6.363l1.599 3.182 1.598 1.591 6.393 1.591h3.197l3.196.597 6.393.994 3.197 1.59 1.598 3.183 1.598 6.363v3.182l-1.598 6.364-1.598 3.182-3.197 3.182-3.196 1.59-6.393 1.591h-3.197l-6.393-1.59-3.197-1.591-3.196-3.182-3.197-1.591-6.393-1.591-6.393 1.59-3.196 1.592-3.197 3.182-3.196 1.59-6.393 1.591zm83.11 0-6.393-1.59-4.795-4.773L220.561 70v-3.182l1.598-6.363 4.795-4.773 6.393-1.591h3.196l6.393 1.59 3.197 1.592 3.196 3.182 3.197 1.59 6.393 1.591 6.393-1.59 1.598-1.591v-3.182l-1.598-3.182-31.965-15.91-9.59-9.545-1.598-3.181-1.598-6.364v-3.182l1.598-6.364 1.598-3.181 3.197-3.182 3.196-1.591L236.543 0h3.197l6.393 1.59 3.196 1.592 3.197 3.182 3.197 1.59 6.393 1.591 6.393-1.59 3.196-1.591 3.197-3.182 3.196-1.591L284.491 0h3.197l6.393 1.59 4.795 4.774 1.598 6.363v3.182l-1.598 6.364-4.795 4.773-6.393 1.59h-3.197l-6.393-1.59-3.196-1.591-3.197-3.182-3.196-1.591-6.393-1.591-6.393 1.59-1.599 1.592v3.182l1.599 3.181 31.965 15.91 9.589 9.545 1.599 3.182 1.598 6.363v3.182l-1.598 6.364-1.599 3.182-3.196 3.182-3.197 1.59-6.393 1.591h-3.196l-6.393-1.59-3.197-1.591-3.196-3.182-3.197-1.591-6.393-1.591-6.393 1.59-3.197 1.592-3.196 3.182-3.197 1.59-6.393 1.591zm83.11 0-6.393-1.59-4.795-4.773L303.671 70v-3.182l1.598-6.363 4.795-4.773 6.393-1.591h3.196l6.393 1.59 3.197 1.592 3.196 3.182 3.197 1.59 6.393 1.591 6.393-1.59 1.598-1.591v-3.182l-1.598-3.182-31.965-15.91-9.59-9.545-1.598-3.181-1.598-6.364v-3.182l1.598-6.364 1.598-3.181 3.197-3.182 3.196-1.591L319.653 0h3.197l6.393 1.59 3.196 1.592 3.197 3.182 3.196 1.59 6.393 1.591 6.393-1.59 3.197-1.591 3.197-3.182 3.196-1.591L367.601 0h3.197l6.393 1.59 4.795 4.774 1.598 6.363v3.182l-1.598 6.364-4.795 4.773-6.393 1.59h-3.197l-6.393-1.59-3.196-1.591-3.197-3.182-3.197-1.591-6.393-1.591-6.393 1.59-1.598 1.592v3.182l1.598 3.181 31.966 15.91 9.589 9.545 1.599 3.182 1.598 6.363v3.182l-1.598 6.364-1.599 3.182-3.196 3.182-3.197 1.59-6.393 1.591h-3.196l-6.393-1.59-3.197-1.591-3.197-3.182-3.196-1.591-6.393-1.591-6.393 1.59-3.197 1.592-3.196 3.182-3.197 1.59-6.393 1.591zm83.109 0-6.393-1.59-4.794-4.773L386.78 70v-3.182l1.599-6.363 4.794-4.773 6.393-1.591h3.197l6.393 1.59 3.197 1.592 3.196 3.182 3.197 1.59 6.393 1.591 6.393-1.59 1.598-1.591v-3.182l-1.598-3.182-31.966-15.91-9.589-9.545-1.598-3.181-1.599-6.364v-3.182l1.599-6.364 1.598-3.181 3.196-3.182 3.197-1.591L402.763 0h3.197l6.393 1.59 3.196 1.592 3.197 3.182 3.196 1.59 6.393 1.591 6.393-1.59 3.197-1.591 3.196-3.182 3.197-1.591L450.711 0h3.197l6.393 1.59 4.794 4.774 1.599 6.363v3.182l-1.599 6.364-4.794 4.773-6.393 1.59h-3.197l-6.393-1.59-3.197-1.591-3.196-3.182-3.197-1.591-6.393-1.591-6.393 1.59-1.598 1.592v3.182l1.598 3.181 31.966 15.91 9.589 9.545 1.598 3.182 1.599 6.363v3.182l-1.599 6.364-1.598 3.182-3.196 3.182-3.197 1.59-6.393 1.591h-3.197l-6.393-1.59-3.196-1.591-3.197-3.182-3.196-1.591-6.393-1.591-6.393 1.59-3.197 1.592-3.196 3.182-3.197 1.59-6.393 1.591zM485.873 105l-6.393-1.591-4.795-4.773-1.598-6.363V89.09l1.598-6.364 4.795-4.773 6.393-1.59h3.196l6.393 1.59 3.197 1.592 3.196 3.181 1.599 3.182 1.598 1.591 3.197 1.59h6.393l3.196-1.59 1.598-1.59 1.599-3.183v-6.363l-1.599-3.182-1.598-1.591-3.196-1.59h-6.393l-3.197 1.59-3.197 3.183-6.393 1.59-6.393-1.59-3.196-1.591L482.676 70l-1.598-3.182-1.598-6.363v-15.91l-1.598-6.363L476.283 35l-3.196-3.182-1.599-3.182-1.598-6.363V19.09l1.598-6.364 1.599-3.182 3.196-3.181 3.197-1.591 6.393-1.591h3.196l6.393 1.59 3.197 1.592 3.196 3.181 1.599 3.182 1.598 6.364v3.182l-1.598 6.363-1.599 3.182L498.659 35l-1.598 3.182-1.599 6.363 3.197 6.364 3.196 1.591 6.394 1.59h6.393l6.393-1.59 3.196-1.59 3.197-6.364-1.599-6.364L524.231 35l-3.196-3.182-1.599-3.182-1.598-6.363V19.09l1.598-6.364 1.599-3.182 3.196-3.181 3.197-1.591 6.393-1.591h3.196l6.393 1.59 3.197 1.592 3.196 3.181 1.599 3.182L553 19.091v3.182l-1.598 6.363-1.599 3.182L546.607 35l-1.598 3.182-1.599 6.363v19.091L545.009 70l1.598 3.182 3.196 3.182 1.599 3.182L553 85.909v3.182l-1.598 6.364-1.599 3.181-3.196 3.182-3.197 1.591-6.393 1.591h-3.196l-6.393-1.591-3.197-1.591-3.196-3.182-3.197-1.59-6.393-1.592-6.393 1.592-3.197 1.59-3.196 3.182-3.197 1.591-6.393 1.591z"/></svg>
